X:1
T:Title
%%score { ( 1 3 ) | 2 }
L:1/8
Q:1/4=100
M:4/4
K:Eb
V:1 treble nm="Grand Piano"
V:3 treble 
V:2 bass 
V:1
 G3 G A2 G2 | [DF]3 [DF] [DB]2 [DA]2 | G3 E GFED | E6 z2 | B3 B c2 B2 | [DA]3 [DA] [DB]2 [B,DA]2 | %6
w: Wm.~J.~Kirkpatrick * * *||||||
 [B,EG]3 [B,EG] [=A,EG][A,EG][A,EF][A,E] |[M:9/8] [B,B]-[B,-EB-][B,FB-] [GB-] [AB]2- [AB] z z | %8
w: ||
[M:4/4] [Ge]3 [Ge] [FBd]2 [EAc]2 | [EGB]3 [B,EG] [_DEB]2 [CEA]2 | %10
w: ||
[M:17/16] [EG]/-[EG]/-[EG]-<[EG][EG][EB][EB][DA]3/2D |[M:4/4] E6 z2 |] %12
w: ||
V:2
 [E,B,E]3 [E,B,E] [E,CE]2 [E,B,E]2 | [B,,B,]3 [B,,B,] [B,,F,]2 [B,,B,]2 | %2
 [E,B,E]3 [E,G,B,] [B,,B,][B,,A,B,][B,,G,B,][B,,F,B,] | [E,G,B,]6 z2 | %4
 [E,G,E]3 [E,G,E] [E,A,E]2 [E,G,E]2 | [B,,F,]3 [B,,F,] [B,,F,]2 B,,2 | E,3 E, C,C,C,C, | %7
[M:9/8] B,,C,D, [E,E] [F,D]2- [F,D] z z |[M:4/4] [E,B,]3 [E,B,] B,,2 C,2 | E,3 E, G,,2 A,,2 | %10
[M:17/16] [B,,B,]/-[B,,B,]/-[B,,B,]-<[B,,B,][B,,B,][B,,G,][B,,G,][B,,F,]3/2[B,,A,B,] | %11
[M:4/4] [E,G,B,]6 z2 |] %12
V:3
 x8 | x8 | x8 | x8 | x8 | x8 | x8 |[M:9/8] .D3 z3 z3 |[M:4/4] x8 | x8 |[M:17/16] x17/2 | %11
[M:4/4] x8 |] %12

